src/shared/_assets/icons/org-chart.svg

<svg width="31" height="27" viewBox="0 0 31 27" fill="none" xmlns="http://www.w3.org/2000/svg">
<path d="M21.375 11.25H28.125C28.7217 11.25 29.294 11.0129 29.716 10.591C30.1379 10.169 30.375 9.59674 30.375 9V2.25C30.375 1.65326 30.1379 1.08097 29.716 0.65901C29.294 0.237053 28.7217 0 28.125 0H21.375C20.7783 0 20.206 0.237053 19.784 0.65901C19.3621 1.08097 19.125 1.65326 19.125 2.25V4.5H16.875C15.9799 4.5 15.1214 4.85558 14.4885 5.48851C13.8556 6.12145 13.5 6.97989 13.5 7.875V12.375H9V11.25C9 10.6533 8.76295 10.081 8.34099 9.65901C7.91903 9.23705 7.34674 9 6.75 9H2.25C1.65326 9 1.08097 9.23705 0.65901 9.65901C0.237053 10.081 0 10.6533 0 11.25V15.75C0 16.3467 0.237053 16.919 0.65901 17.341C1.08097 17.7629 1.65326 18 2.25 18H6.75C7.34674 18 7.91903 17.7629 8.34099 17.341C8.76295 16.919 9 16.3467 9 15.75V14.625H13.5V19.125C13.5 20.0201 13.8556 20.8786 14.4885 21.5115C15.1214 22.1444 15.9799 22.5 16.875 22.5H19.125V24.75C19.125 25.3467 19.3621 25.919 19.784 26.341C20.206 26.7629 20.7783 27 21.375 27H28.125C28.7217 27 29.294 26.7629 29.716 26.341C30.1379 25.919 30.375 25.3467 30.375 24.75V18C30.375 17.4033 30.1379 16.831 29.716 16.409C29.294 15.9871 28.7217 15.75 28.125 15.75H21.375C20.7783 15.75 20.206 15.9871 19.784 16.409C19.3621 16.831 19.125 17.4033 19.125 18V20.25H16.875C16.5766 20.25 16.2905 20.1315 16.0795 19.9205C15.8685 19.7095 15.75 19.4234 15.75 19.125V7.875C15.75 7.57663 15.8685 7.29048 16.0795 7.0795C16.2905 6.86853 16.5766 6.75 16.875 6.75H19.125V9C19.125 9.59674 19.3621 10.169 19.784 10.591C20.206 11.0129 20.7783 11.25 21.375 11.25ZM6.75 15.75H2.25V11.25H6.75V15.75ZM21.375 18H28.125V24.75H21.375V18ZM21.375 2.25H28.125V9H21.375V2.25Z" fill="black"/>
</svg>

<svg xmlns="http://www.w3.org/2000/svg" fill="none" viewBox="0 0 31 27"><path fill="currentColor" d="M21.375 11.25h6.75A2.25 2.25 0 0 0 30.375 9V2.25A2.25 2.25 0 0 0 28.125 0h-6.75a2.25 2.25 0 0 0-2.25 2.25V4.5h-2.25A3.375 3.375 0 0 0 13.5 7.875v4.5H9V11.25A2.25 2.25 0 0 0 6.75 9h-4.5A2.25 2.25 0 0 0 0 11.25v4.5A2.25 2.25 0 0 0 2.25 18h4.5A2.25 2.25 0 0 0 9 15.75v-1.125h4.5v4.5a3.375 3.375 0 0 0 3.375 3.375h2.25v2.25a2.25 2.25 0 0 0 2.25 2.25h6.75a2.25 2.25 0 0 0 2.25-2.25V18a2.25 2.25 0 0 0-2.25-2.25h-6.75a2.25 2.25 0 0 0-2.25 2.25v2.25h-2.25a1.125 1.125 0 0 1-1.125-1.125V7.875a1.125 1.125 0 0 1 1.125-1.125h2.25V9a2.25 2.25 0 0 0 2.25 2.25M6.75 15.75h-4.5v-4.5h4.5zM21.375 18h6.75v6.75h-6.75zm0-15.75h6.75V9h-6.75z"/></svg>
